icons/1_Primary/Carta.svg

<svg width="1024" height="1024" fill="none" xmlns="http://www.w3.org/2000/svg"><g clip-path="url(#a)"><path d="M512 1024c282.77 0 512-229.23 512-512S794.77 0 512 0 0 229.23 0 512s229.23 512 512 512Z" fill="#56595B"/><path d="M192 372.47v279.06h640V372.47H192Zm623 262H209v-245h606v245ZM284.57 519c0-31.57 26.51-50.1 50.29-50.1 17 0 32.9 6.42 41.41 21.21l-15.9 9.27a29.858 29.858 0 0 0-25.19-13.41c-14 0-30.63 11-30.63 32.71 0 21.21 15.9 32.9 31.95 32.9 11.16 0 20.43-6.25 25.91-15.9l16.26 7.55c-9.2 16.64-25.66 25.51-44.74 25.51-24.02-.05-49.36-18.61-49.36-49.74Zm150.9 49.72c13.22 0 25.7-5.87 32.14-14.37V566h19.64v-94.68h-19.64V483c-6.12-8.59-18.9-14.18-32.14-14.18-28.93 0-49.17 21.17-49.17 49.91 0 28.22 20.43 49.96 49.17 49.96v.03Zm1.89-81.86c18.15 0 30.61 13.6 30.61 31.95s-12.48 31.95-30.61 31.95c-18.54 0-31-13.8-31-32.33-.01-18.16 12.85-31.6 31-31.6v.03Zm149.13 2.78h-15.11V470.7h15.3v-28h20.24v28h21v18.92h-21V566h-20.43v-76.36Zm97.4 79.07c13.24 0 25.72-5.87 32.16-14.37V566h19.66v-94.68H716V483c-6.12-8.59-18.9-14.18-32.16-14.18-28.91 0-49.14 21.17-49.14 49.91.04 28.22 20.45 49.96 49.19 49.96v.02Zm1.91-81.86c18.13 0 30.63 13.6 30.63 31.95s-12.5 31.95-30.63 31.95c-18.54 0-31-13.8-31-32.33-.01-18.15 12.85-31.59 31-31.59v.02Zm-157.87 79.06H507.5v-94.72h18.71v16.45c3.87-10.69 12.05-18 22.89-18a28.72 28.72 0 0 1 7 .74v18.32c-15.26-1.79-28.16 8.89-28.16 33.29l-.01 43.92Z" fill="#fff"/></g><defs><clipPath id="a"><path fill="#fff" d="M0 0h1024v1024H0z"/></clipPath></defs></svg>

<svg width="1024" height="1024" viewBox="0 0 1024 1024" fill="none" xmlns="http://www.w3.org/2000/svg">
<g clip-path="url(#clip0_2_1782)">
<path d="M512 1024C794.77 1024 1024 794.77 1024 512C1024 229.23 794.77 0 512 0C229.23 0 0 229.23 0 512C0 794.77 229.23 1024 512 1024Z" fill="#56595B"/>
<path d="M192 372.47V651.53H832V372.47H192ZM815 634.47H209V389.47H815V634.47ZM284.57 519C284.57 487.43 311.08 468.9 334.86 468.9C351.86 468.9 367.76 475.32 376.27 490.11L360.37 499.38C357.624 495.22 353.88 491.814 349.48 489.472C345.08 487.13 340.164 485.926 335.18 485.97C321.18 485.97 304.55 496.97 304.55 518.68C304.55 539.89 320.45 551.58 336.5 551.58C347.66 551.58 356.93 545.33 362.41 535.68L378.67 543.23C369.47 559.87 353.01 568.74 333.93 568.74C309.91 568.69 284.57 550.13 284.57 519ZM435.47 568.72C448.69 568.72 461.17 562.85 467.61 554.35V566H487.25V471.32H467.61V483C461.49 474.41 448.71 468.82 435.47 468.82C406.54 468.82 386.3 489.99 386.3 518.73C386.3 546.95 406.73 568.69 435.47 568.69V568.72ZM437.36 486.86C455.51 486.86 467.97 500.46 467.97 518.81C467.97 537.16 455.49 550.76 437.36 550.76C418.82 550.76 406.36 536.96 406.36 518.43C406.35 500.27 419.21 486.83 437.36 486.83V486.86ZM586.49 489.64H571.38V470.7H586.68V442.7H606.92V470.7H627.92V489.62H606.92V566H586.49V489.64ZM683.89 568.71C697.13 568.71 709.61 562.84 716.05 554.34V566H735.71V471.32H716V483C709.88 474.41 697.1 468.82 683.84 468.82C654.93 468.82 634.7 489.99 634.7 518.73C634.74 546.95 655.15 568.69 683.89 568.69V568.71ZM685.8 486.85C703.93 486.85 716.43 500.45 716.43 518.8C716.43 537.15 703.93 550.75 685.8 550.75C667.26 550.75 654.8 536.95 654.8 518.42C654.79 500.27 667.65 486.83 685.8 486.83V486.85ZM527.93 565.91H507.5V471.19H526.21V487.64C530.08 476.95 538.26 469.64 549.1 469.64C551.455 469.599 553.806 469.847 556.1 470.38V488.7C540.84 486.91 527.94 497.59 527.94 521.99L527.93 565.91Z" fill="white"/>
</g>
<defs>
<clipPath id="clip0_2_1782">
<rect width="1024" height="1024" fill="white"/>
</clipPath>
</defs>
</svg>
